X:241
T:Seamus O'Shanahan's
R:jig
C:Paul O'Shaughnessy
D:Altan: Harvest Storm
Z:id:hn-jig-241
M:6/8
K:Am
EAA ABc|BGG GBd|edc Bcd|~c3 BGF|
~E3 ABc|BGG GBd|edc Bcd|1 cAG A3:|2 cAG ABc||
d2f faf|ecA Adc|B2d dcB|cee ecA|
dff faf|ecA Adc|Bcd cBG|ABA ABc|
d2f faf|ecA Adc|~B3 ~d3|cee ecA|
dfg agf|ecA Adc|B2d cBG|AcA BGF||

